img/raw/icons/Instagram_Solid.svg

<?xml version="1.0" encoding="UTF-8"?>
<svg xmlns="http://www.w3.org/2000/svg" xmlns:xlink="http://www.w3.org/1999/xlink" width="500pt" height="500pt" viewBox="0 0 500 500" version="1.1">
<g id="surface1">
<path style=" stroke:none;fill-rule:nonzero;fill:#5B5B5B;fill-opacity:1;" d="M 160 30 C 88.300781 30 30 88.300781 30 160 L 30 340 C 30 411.699219 88.300781 470 160 470 L 340 470 C 411.699219 470 470 411.699219 470 340 L 470 160 C 470 88.300781 411.699219 30 340 30 Z M 370 110 C 381 110 390 119 390 130 C 390 141 381 150 370 150 C 359 150 350 141 350 130 C 350 119 359 110 370 110 Z M 250 140 C 310.699219 140 360 189.300781 360 250 C 360 310.699219 310.699219 360 250 360 C 189.300781 360 140 310.699219 140 250 C 140 189.300781 189.300781 140 250 140 Z M 250 160 C 200.398438 160 160 200.398438 160 250 C 160 299.601563 200.398438 340 250 340 C 299.601563 340 340 299.601563 340 250 C 340 200.398438 299.601563 160 250 160 Z "/>
</g>
</svg>

<?xml version="1.0" encoding="utf-8"?>
<!-- Generator: Adobe Illustrator 23.0.2, SVG Export Plug-In . SVG Version: 6.00 Build 0)  -->
<svg version="1.1" id="Layer_1" xmlns="http://www.w3.org/2000/svg" xmlns:xlink="http://www.w3.org/1999/xlink" x="0px" y="0px"
	 viewBox="0 0 500 500" style="enable-background:new 0 0 500 500;" xml:space="preserve">
<style type="text/css">
	.st0{fill:#FFFFFF;}
</style>
<g id="surface1">
	<path class="st0" d="M160,30C88.3,30,30,88.3,30,160v180c0,71.7,58.3,130,130,130h180c71.7,0,130-58.3,130-130V160
		c0-71.7-58.3-130-130-130H160z M370,110c11,0,20,9,20,20s-9,20-20,20s-20-9-20-20S359,110,370,110z M250,140
		c60.7,0,110,49.3,110,110s-49.3,110-110,110s-110-49.3-110-110S189.3,140,250,140z M250,160c-49.6,0-90,40.4-90,90s40.4,90,90,90
		s90-40.4,90-90S299.6,160,250,160z"/>
</g>
</svg>
